X: 21998
T: Kitty's Bonnet
R: jig
M: 6/8
K: Dmajor
|:FAA FAA|def gdB|G3 BAB|def gdB|
FAA FAA|def gfg|age dBG|1 A3 A2 G:|2 A3 A2 d||
|:efg age|def gdB|G3 BAB|def g2 d|
efg age|def gfg|age dBG|1 A3 A2 d:|2 A3 A3||

